src/4-icons/clock.svg

<svg width="260" height="260" viewBox="0 0 260 260" fill="none" xmlns="http://www.w3.org/2000/svg">
<path d="M130.91 43.2646C84.6036 43.2646 47.0601 80.8082 47.0601 127.115C47.0601 173.421 84.6036 210.965 130.91 210.965C177.216 210.965 214.76 173.421 214.76 127.115C214.76 80.8082 177.216 43.2911 130.91 43.2646ZM182.858 179.062C169.546 192.374 151.216 200.564 130.936 200.564C110.631 200.564 92.3011 192.348 78.9883 179.062C65.6765 165.75 57.4865 147.42 57.4601 127.114C57.4601 106.808 65.6755 88.4782 78.9883 75.1654C92.3011 61.8526 110.63 53.6636 130.936 53.6636C151.243 53.6636 169.546 61.88 182.858 75.1654C196.17 88.4772 204.36 106.807 204.36 127.114C204.36 147.42 196.145 165.749 182.858 179.062Z" fill="black"/>
<path d="M136.11 85.0718H125.71V132.314H182.598V121.914H136.11V85.0718Z" fill="black"/>
</svg>

<svg width="260" height="260" fill="none" xmlns="http://www.w3.org/2000/svg"><path d="M130.91 43.265c-46.306 0-83.85 37.543-83.85 83.85 0 46.306 37.544 83.85 83.85 83.85s83.85-37.544 83.85-83.85c0-46.307-37.544-83.824-83.85-83.85Zm51.948 135.797c-13.312 13.312-31.642 21.502-51.922 21.502-20.305 0-38.635-8.216-51.948-21.502-13.311-13.312-21.502-31.642-21.528-51.948 0-20.306 8.215-38.636 21.528-51.949 13.313-13.312 31.642-21.501 51.948-21.501 20.307 0 38.61 8.216 51.922 21.501 13.312 13.312 21.502 31.642 21.502 51.949 0 20.306-8.215 38.635-21.502 51.948Z" fill="#000"/><path d="M136.11 85.072h-10.4v47.242h56.888v-10.4H136.11V85.072Z" fill="#000"/></svg>
